Papirus/24x24/panel/teamviewer-indicator-busy.svg

<?xml version="1.0" encoding="UTF-8" standalone="no"?>
<svg xmlns:dc="http://purl.org/dc/elements/1.1/" xmlns:cc="http://creativecommons.org/ns#" xmlns:rdf="http://www.w3.org/1999/02/22-rdf-syntax-ns#" xmlns:svg="http://www.w3.org/2000/svg" xmlns="http://www.w3.org/2000/svg" version="1.1" id="svg2" height="24" viewBox="0 0 6.7733335 6.7733335" width="24">
    <metadata id="metadata16">
        <rdf:RDF>
            <cc:Work rdf:about="">
                <dc:format>
                    image/svg+xml
                </dc:format>
                <dc:type rdf:resource="http://purl.org/dc/dcmitype/StillImage"/>
                <dc:title/>
            </cc:Work>
        </rdf:RDF>
    </metadata>
    <path id="path4142" d="M 3.1044445,0.84666674 A 2.2577776,2.2577776 0 0 0 0.84666667,3.1044444 2.2577776,2.2577776 0 0 0 3.1044445,5.3622222 2.2577776,2.2577776 0 0 0 4.4323221,4.9273132 L 3.8348048,4.3303472 4.4328732,3.7322785 4.6318619,3.5310851 5.151658,4.0508812 A 2.2577776,2.2577776 0 0 0 5.3622223,3.1044444 2.2577776,2.2577776 0 0 0 3.1044445,0.84666674 Z m -0.5644444,1.41111106 0,0.5638932 1.1288888,0 0,-0.5638932 0.8466667,0.8466666 -0.8466667,0.8466667 0,-0.5638933 -1.1288888,0 0,0.5638933 L 1.6933334,3.1044444 2.5400001,2.2577778 Z M 4.6324131,3.9312675 4.2333334,4.3303472 4.8325044,4.928967 4.2333334,5.5281381 4.6324131,5.9266666 5.231033,5.3280468 5.830204,5.9266666 6.2287325,5.5281381 5.630113,4.928967 6.2287325,4.3303472 5.830204,3.9312675 5.231033,4.5304382 4.6324131,3.9312675 Z" style="opacity:1;fill:#ffffff;fill-opacity:1;stroke:none;stroke-width:2;stroke-linecap:round;stroke-linejoin:round;stroke-miterlimit:4;stroke-dasharray:none;stroke-opacity:1"/>
    <g transform="matrix(0.28222222,0,0,0.28222222,-4.0521466,-1.8190454)" id="g4146" style="fill:none;fill-opacity:1">
        <path d="m 30.565,21.238 1.414,1.414 -1.793,1.793 5.172,0 0,2 -5.172,0 1.793,1.793 -1.414,1.414 -4.207,-4.207 z" style="opacity:1;fill:none;fill-opacity:1;fill-rule:nonzero;stroke:none" id="path4148"/>
    </g>
</svg>

<?xml version="1.0" encoding="UTF-8" standalone="no"?>
<svg id="svg2" xmlns:rdf="http://www.w3.org/1999/02/22-rdf-syntax-ns#" xmlns="http://www.w3.org/2000/svg" height="24" viewBox="0 0 6.7733335 6.7733335" width="24" version="1.1" xmlns:cc="http://creativecommons.org/ns#" xmlns:dc="http://purl.org/dc/elements/1.1/">
 <metadata id="metadata16">
  <rdf:RDF>
   <cc:Work rdf:about="">
    <dc:format>image/svg+xml</dc:format>
    <dc:type rdf:resource="http://purl.org/dc/dcmitype/StillImage"/>
    <dc:title/>
   </cc:Work>
  </rdf:RDF>
 </metadata>
 <path id="path4142" d="m3.1044 0.84667a2.2578 2.2578 0 0 0 -2.2577 2.2577 2.2578 2.2578 0 0 0 2.2577 2.2578 2.2578 2.2578 0 0 0 1.3279 -0.4349l-0.5975-0.597 0.5981-0.598 0.199-0.2012 0.5198 0.5198a2.2578 2.2578 0 0 0 0.2105 -0.9465 2.2578 2.2578 0 0 0 -2.2578 -2.2577zm-0.56444 1.4111v0.56389h1.1289v-0.56389l0.84667 0.84667-0.84667 0.84667v-0.56389h-1.1289v0.56389l-0.8467-0.8468 0.8467-0.8466zm2.0924 1.6735-0.3991 0.399 0.5992 0.5987-0.5992 0.5991 0.3991 0.3986 0.5986-0.5987 0.5992 0.5987 0.3985-0.3986-0.5986-0.5991 0.5986-0.5987-0.3985-0.399-0.5992 0.5991-0.5986-0.5991z" fill="#fff"/>
 <g id="g4146" fill="none" transform="matrix(.28222 0 0 .28222 -4.0521 -1.819)">
  <path id="path4148" fill="none" d="m30.565 21.238 1.414 1.414-1.793 1.793h5.172v2h-5.172l1.793 1.793-1.414 1.414-4.207-4.207z"/>
 </g>
</svg>
